X: 30632
T: One-legged Chicken, The
R: waltz
M: 3/4
K: Gmajor
|D2|:D2 E2 F2||G4 d2||g6|z2 f2 e2|
d^c de dc|c4 A2|(E6|E6)|
D2 F2 A2|c4 A2|a6|z2 g2 f2|
e6|f6|d6|z2 z2 D2|
D2 E2 F2|G4 B2|g6|z2 f2 e2|
d^c de dc|c4 A2|(E6|E4) z2|
E2 F2 G2|F4 E2|D^C DE FG|g4 d2|
B_B =Bd B_B|A_A =AB A_A|(G6|1 G4) D2:|2 G4 d2||
|:g4 d2|z2 ^c3 d|(c4 E2)|z2 G2 A2|
B4 D2|z2 G2 A2|B6|z2 z2 d2|
g4 d2|z2 ^c3 d|c4 (E2|E2) G2 A2|
B_B =Bd B_B|A_A =AB A_A|1 G4 d2:|2 G6||

